tools/download-figma-icons/icons/outlined-medium/industry.svg

<svg width="25" height="24" viewBox="0 0 25 24" fill="none" xmlns="http://www.w3.org/2000/svg">
<path d="M23.6801 11.385C23.5818 11.3166 23.4685 11.2727 23.3498 11.2571C23.2311 11.2414 23.1103 11.2544 22.9976 11.295L15.7526 13.9275V12C15.7524 11.8791 15.723 11.76 15.6668 11.6529C15.6107 11.5458 15.5295 11.4539 15.4301 11.385C15.3318 11.3166 15.2185 11.2727 15.0998 11.2571C14.9811 11.2414 14.8603 11.2544 14.7476 11.295L6.75262 14.205L6.00262 5.205C5.99114 5.01399 5.90708 4.83459 5.76766 4.70353C5.62823 4.57247 5.44398 4.49966 5.25262 4.5H2.25262C2.06368 4.4994 1.88148 4.57013 1.74243 4.69805C1.60338 4.82598 1.51774 5.00167 1.50262 5.19L0.00262332 23.19C-0.00604162 23.2933 0.00681358 23.3973 0.0403771 23.4954C0.0739406 23.5936 0.127483 23.6836 0.197623 23.76C0.268411 23.8363 0.354314 23.8971 0.449865 23.9384C0.545416 23.9797 0.648523 24.0007 0.752623 24H23.2526C23.4515 24 23.6423 23.921 23.783 23.7803C23.9236 23.6397 24.0026 23.4489 24.0026 23.25V12C24.0024 11.8791 23.973 11.76 23.9168 11.6529C23.8607 11.5458 23.7795 11.4539 23.6801 11.385ZM4.56262 6L4.75012 8.25H2.75512L2.94262 6H4.56262ZM1.56262 22.5L2.62762 9.75H4.87762L5.93512 22.5H1.56262ZM6.87262 15.75H7.00012L14.2526 13.0725V22.5H7.44262L6.87262 15.75ZM22.5026 22.5H15.7526V15.525L22.5026 13.0725V22.5Z" fill="black"/>
<path d="M2.93512 3.105C3.13403 3.105 3.3248 3.02598 3.46545 2.88533C3.6061 2.74468 3.68512 2.55391 3.68512 2.355C3.68512 2.12824 3.7752 1.91077 3.93554 1.75042C4.09589 1.59008 4.31336 1.5 4.54012 1.5H12.0026C12.2015 1.5 12.3923 1.42098 12.533 1.28033C12.6736 1.13968 12.7526 0.948912 12.7526 0.75C12.7526 0.551088 12.6736 0.360322 12.533 0.21967C12.3923 0.0790176 12.2015 0 12.0026 0L4.54012 0C3.91614 0.00197775 3.31829 0.250728 2.87707 0.691948C2.43585 1.13317 2.1871 1.73102 2.18512 2.355C2.18512 2.55391 2.26414 2.74468 2.40479 2.88533C2.54544 3.02598 2.73621 3.105 2.93512 3.105Z" fill="black"/>
<path d="M4.50262 3C4.50262 3.19891 4.58164 3.38968 4.72229 3.53033C4.86295 3.67098 5.05371 3.75 5.25262 3.75H15.0026C15.2015 3.75 15.3923 3.67098 15.533 3.53033C15.6736 3.38968 15.7526 3.19891 15.7526 3C15.7526 2.80109 15.6736 2.61032 15.533 2.46967C15.3923 2.32902 15.2015 2.25 15.0026 2.25H5.25262C5.05371 2.25 4.86295 2.32902 4.72229 2.46967C4.58164 2.61032 4.50262 2.80109 4.50262 3Z" fill="black"/>
<path d="M9.75262 18H12.0026C12.2015 18 12.3923 17.921 12.533 17.7803C12.6736 17.6397 12.7526 17.4489 12.7526 17.25C12.7526 17.0511 12.6736 16.8603 12.533 16.7197C12.3923 16.579 12.2015 16.5 12.0026 16.5H9.75262C9.55371 16.5 9.36295 16.579 9.22229 16.7197C9.08164 16.8603 9.00262 17.0511 9.00262 17.25C9.00262 17.4489 9.08164 17.6397 9.22229 17.7803C9.36295 17.921 9.55371 18 9.75262 18Z" fill="black"/>
<path d="M18.0026 18H20.2526C20.4515 18 20.6423 17.921 20.783 17.7803C20.9236 17.6397 21.0026 17.4489 21.0026 17.25C21.0026 17.0511 20.9236 16.8603 20.783 16.7197C20.6423 16.579 20.4515 16.5 20.2526 16.5H18.0026C17.8037 16.5 17.6129 16.579 17.4723 16.7197C17.3316 16.8603 17.2526 17.0511 17.2526 17.25C17.2526 17.4489 17.3316 17.6397 17.4723 17.7803C17.6129 17.921 17.8037 18 18.0026 18Z" fill="black"/>
<path d="M12.0026 19.5H9.75262C9.55371 19.5 9.36295 19.579 9.22229 19.7197C9.08164 19.8603 9.00262 20.0511 9.00262 20.25C9.00262 20.4489 9.08164 20.6397 9.22229 20.7803C9.36295 20.921 9.55371 21 9.75262 21H12.0026C12.2015 21 12.3923 20.921 12.533 20.7803C12.6736 20.6397 12.7526 20.4489 12.7526 20.25C12.7526 20.0511 12.6736 19.8603 12.533 19.7197C12.3923 19.579 12.2015 19.5 12.0026 19.5Z" fill="black"/>
<path d="M20.2526 19.5H18.0026C17.8037 19.5 17.6129 19.579 17.4723 19.7197C17.3316 19.8603 17.2526 20.0511 17.2526 20.25C17.2526 20.4489 17.3316 20.6397 17.4723 20.7803C17.6129 20.921 17.8037 21 18.0026 21H20.2526C20.4515 21 20.6423 20.921 20.783 20.7803C20.9236 20.6397 21.0026 20.4489 21.0026 20.25C21.0026 20.0511 20.9236 19.8603 20.783 19.7197C20.6423 19.579 20.4515 19.5 20.2526 19.5Z" fill="black"/>
</svg>

<svg width="25" height="24" viewBox="0 0 25 24" fill="none" xmlns="http://www.w3.org/2000/svg"><path d="M23.68 11.385a.75.75 0 0 0-.682-.09l-7.245 2.633V12a.75.75 0 0 0-1.005-.705l-7.995 2.91-.75-9a.75.75 0 0 0-.75-.705h-3a.75.75 0 0 0-.75.69l-1.5 18a.75.75 0 0 0 .447.748.75.75 0 0 0 .303.062h22.5a.75.75 0 0 0 .75-.75V12a.75.75 0 0 0-.323-.615ZM4.563 6l.187 2.25H2.755L2.943 6h1.62Zm-3 16.5L2.628 9.75h2.25L5.935 22.5H1.563Zm5.31-6.75H7l7.253-2.678V22.5h-6.81l-.57-6.75Zm15.63 6.75h-6.75v-6.975l6.75-2.453V22.5ZM2.935 3.105a.75.75 0 0 0 .75-.75.855.855 0 0 1 .855-.855h7.463a.75.75 0 0 0 0-1.5H4.54a2.362 2.362 0 0 0-2.355 2.355.75.75 0 0 0 .75.75Z" fill="currentColor"/><path d="M4.503 3a.75.75 0 0 0 .75.75h9.75a.75.75 0 0 0 0-1.5h-9.75a.75.75 0 0 0-.75.75Zm5.25 15h2.25a.75.75 0 1 0 0-1.5h-2.25a.75.75 0 1 0 0 1.5Zm8.25 0h2.25a.75.75 0 1 0 0-1.5h-2.25a.75.75 0 1 0 0 1.5Zm-6 1.5h-2.25a.75.75 0 1 0 0 1.5h2.25a.75.75 0 1 0 0-1.5Zm8.25 0h-2.25a.75.75 0 1 0 0 1.5h2.25a.75.75 0 1 0 0-1.5Z" fill="currentColor"/></svg>
